public/css/images/sparkbox.svg

<?xml version="1.0" encoding="UTF-8" standalone="no"?>
<svg width="120px" height="27px" viewBox="0 0 120 27" version="1.1" xmlns="http://www.w3.org/2000/svg" xmlns:xlink="http://www.w3.org/1999/xlink" xmlns:sketch="http://www.bohemiancoding.com/sketch/ns">
    <title>Sparkbox Text</title>
    <description>Created with Sketch (http://www.bohemiancoding.com/sketch)</description>
    <defs></defs>
    <g id="Page-1" stroke="none" stroke-width="1" fill="none" fill-rule="evenodd" sketch:type="MSPage">
        <path d="M2.40892812,27 L0.105742649,24.6530489 L0.104360392,18.0104748 L3.8672091,17.9988231 L3.87619377,21.1359767 C3.9086768,22.5151238 4.44913923,23.1856308 5.52246167,23.1856308 C6.64796431,23.1838654 7.15628927,22.5151238 7.15628927,21.1359767 L7.15628927,16.3696923 L0.00172782106,12.2707372 L0,2.28198355 L2.2247424,0.00353084256 L8.45146394,0 L10.8925295,2.48641933 L10.8959852,8.35150192 L7.23715129,8.35926977 L7.22816662,5.76127581 C7.2603041,4.46086649 6.71293038,3.78188547 5.60263257,3.74657704 L5.5936479,3.74657704 C4.98718271,3.74657704 4.58598266,3.88992925 4.32093491,4.16886581 C4.00094245,4.50253044 3.85511435,5.02438897 3.87619377,5.76127581 L3.87619377,9.43193974 L10.9951621,13.6703632 L11,24.5072252 L8.56031666,27 L2.40892812,27" id="Fill-1" fill="#FFFFFF" sketch:type="MSShapeGroup"></path>
        <path d="M16.0090996,27 L16,0.00918019067 L24.1374801,0 L26.9968501,2.87904903 L27,12.8971086 L24.1441298,15.7772169 L19.8092269,15.7807478 L19.8197264,27 L16.0090996,27 L16.0090996,27 L16.0090996,27 L16.0090996,27 Z M20,12 C20,12 21.7375658,11.9913 21.7421315,11.9913 C22.2300066,11.9913 22.5293845,11.8858959 22.7227735,11.6760917 C22.9220326,11.4659528 23.015629,11.1427137 22.9976924,10.7210975 L22.9976924,5.20160616 C23.015629,4.82750544 22.9288811,4.53505103 22.7416884,4.33762757 C22.5346024,4.11410407 22.1931551,4 21.7294128,4 L20,4 L20,12 L20,12 Z M20,12" id="Fill-2" fill="#FFFFFF" sketch:type="MSShapeGroup"></path>
        <path d="M37.2555531,27 L36.9369865,23.4063084 L34.1798557,23.4165479 L33.8805336,26.9918791 L30,27 L32.7918398,0.00918019067 L37.8449186,0 L41,27 L37.2555531,27 L37.2555531,27 L37.2555531,27 L37.2555531,27 Z M34,20 L36,19.9886219 L34.9133497,8 L34,20 L34,20 Z M34,20" id="Fill-3" fill="#FFFFFF" sketch:type="MSShapeGroup"></path>
        <path d="M53.1625204,27 L51.4170589,15.6663485 L49.902635,15.672704 L49.9089745,26.9918791 L46.0063394,27 L46,0.00918019067 L54.082797,0 L56.9214613,2.84303443 L56.9249832,12.827551 L55.1495854,14.6095673 L57,27 L53.1625204,27 L53.1625204,27 L53.1625204,27 L53.1625204,27 Z M50,12 C50,12 51.7372025,11.9922067 51.7401369,11.9922067 C52.5771112,11.9922067 52.9700033,11.5815332 53,10.7734011 L53,5.18559932 C52.9700033,4.39779754 52.5741767,4 51.8245843,4 L50,4.00067768 L50,12 L50,12 Z M50,12" id="Fill-4" fill="#FFFFFF" sketch:type="MSShapeGroup"></path>
        <path d="M69.0766701,27 L65.8113627,15.7380246 L65.830311,26.9918791 L62.0099909,27 L62,0.00918019067 L65.8210091,0 L65.830311,12.25732 L69.0639231,0.0056493481 L72.881487,0 L69.5362523,13.9651885 L73,27 L69.0766701,27" id="Fill-5" fill="#FFFFFF" sketch:type="MSShapeGroup"></path>
        <path d="M78.0100873,27 L78,0.00918019067 L86.1251265,0 L89,2.9132982 L89,11.653899 L87.2500316,13.435209 L89,15.194981 L89,24.1509631 L86.1988679,27 L78.0100873,27 L78.0100873,27 L78.0100873,27 L78.0100873,27 Z M83.5164304,22.986733 C83.6030928,22.9967729 83.6865335,23 83.7644974,23 C84.5521907,23 84.9703608,22.5152167 85,21.5546143 L85,16.4005647 C85,15.4586079 84.5460696,15 83.6175902,15 L82,15.0035857 L82,22.9967729 L83.5164304,22.986733 L83.5164304,22.986733 L83.5164304,22.986733 L83.5164304,22.986733 Z M82,12 L83.5226384,11.9892396 C84.0738109,11.9892396 84.4281821,11.8515065 84.6581053,11.5803443 C84.9140758,11.2790531 85.0272688,10.802726 84.9944685,10.1606887 L84.9944685,5.43579627 C85.0063666,4.9838594 84.9079659,4.63378766 84.7021605,4.3938307 C84.4757746,4.13199426 84.1123995,4 83.6210391,4 L82,4.0017934 L82,12 L82,12 Z M82,12" id="Fill-6" fill="#FFFFFF" sketch:type="MSShapeGroup"></path>
        <path d="M96.7628294,27 L94,24.1936863 L94,2.77771384 L96.7208738,0.00353084256 L102.060333,0 L105,2.98462122 L105,23.9020387 L101.960472,27 L96.7628294,27 L96.7628294,27 L96.7628294,27 L96.7628294,27 Z M99.9802732,4 C98.6490886,4.10996909 98.0013621,4.70976784 98.0013621,5.83389636 L98.0013621,22.1319629 C97.9838765,22.7066053 98.1347846,23.1558255 98.4518057,23.470639 C98.7794702,23.8034213 99.2971953,23.9816718 99.9802732,24 C101.353651,23.9299217 102.033688,23.3010134 101.998717,22.1319629 L101.998717,5.83389636 C101.885821,4.72737727 101.202743,4.10996909 99.9802732,4 L99.9802732,4 Z M99.9802732,4" id="Fill-7" fill="#FFFFFF" sketch:type="MSShapeGroup"></path>
        <path d="M108,0 L111.861087,0 L114.241468,6.9987307 L116.237352,0 L119.895387,0 L116.170811,12.788079 L120,27 L116.237352,27 L114.136512,19.2550772 L111.896073,27 L108.136512,27 L112.379009,12.8265899 L108,0" id="Fill-8" fill="#FFFFFF" sketch:type="MSShapeGroup"></path>
    </g>
</svg>

<?xml version="1.0" encoding="utf-8"?>
<!-- Generator: Adobe Illustrator 17.0.0, SVG Export Plug-In . SVG Version: 6.00 Build 0)  -->
<!DOCTYPE svg PUBLIC "-//W3C//DTD SVG 1.1//EN" "http://www.w3.org/Graphics/SVG/1.1/DTD/svg11.dtd">
<svg version="1.1" id="Layer_1" xmlns:sketch="http://www.bohemiancoding.com/sketch/ns"
	 xmlns="http://www.w3.org/2000/svg" xmlns:xlink="http://www.w3.org/1999/xlink" x="0px" y="0px" width="120px" height="27px"
	 viewBox="0 0 120 27" enable-background="new 0 0 120 27" xml:space="preserve">
<title>Sparkbox Text</title>
<description>Created with Sketch (http://www.bohemiancoding.com/sketch)</description>
<g id="Page-1" sketch:type="MSPage">
	<path id="Fill-1" sketch:type="MSShapeGroup" fill="#FFFFFF" d="M2.409,27L0,24.653v-6.648h3.872v3.131
		c0.032,1.379,0.577,2.05,1.651,2.05c1.126-0.002,1.634-0.671,1.634-2.05V16.37l-7.155-4.099L0,2.282l2.225-2.278L8.451,0
		l2.443,2.486v5.869H7.233V5.761c0.032-1.3-0.52-1.979-1.63-2.015H5.594c-0.606,0-1.008,0.143-1.273,0.422
		c-0.32,0.334-0.466,0.856-0.445,1.592v3.671l7.119,4.238L11,24.507L8.56,27H2.409"/>
	<path id="Fill-2" sketch:type="MSShapeGroup" fill="#FFFFFF" d="M16.009,27L16,0.009L24.137,0l2.859,2.879L27,12.897l-2.856,2.88
		l-4.335,0.004L19.82,27H16.009L16.009,27L16.009,27L16.009,27z M20,11.997c0,0,1.738,0,1.742,0c0.488,0,0.787-0.111,0.981-0.321
		c0.199-0.21,0.293-0.533,0.275-0.955V5.202c0.018-0.374-0.069-0.667-0.256-0.864C22.535,4.114,22.193,4,21.729,4H20V11.997
		L20,11.997z"/>
	<path id="Fill-3" sketch:type="MSShapeGroup" fill="#FFFFFF" d="M37.256,27l-0.319-3.594l-2.757,0.01l-0.299,3.575L30,27
		l2.792-26.991L37.845,0L41,27H37.256L37.256,27L37.256,27L37.256,27z M34.607,19.989h2L35.521,8L34.607,19.989L34.607,19.989z"/>
	<path id="Fill-4" sketch:type="MSShapeGroup" fill="#FFFFFF" d="M53.163,27l-1.745-11.334l-1.514,0.006l0.006,11.319L46.006,27
		L46,0.009L54.083,0l2.839,2.843l0.004,9.985L55.15,14.61L57,27H53.163L53.163,27L53.163,27L53.163,27z M50,11.996
		c0,0,1.737,0,1.74,0c0.837,0,1.23-0.415,1.26-1.223V5.186C52.97,4.398,52.574,4,51.825,4H50v8V11.996z"/>
	<path id="Fill-5" sketch:type="MSShapeGroup" fill="#FFFFFF" d="M69.077,27l-3.265-11.262l0.019,11.254L62.01,27L62,0.009L65.821,0
		l0.009,12.257l3.234-12.252L72.881,0l-3.345,13.965L73,27H69.077"/>
	<path id="Fill-6" sketch:type="MSShapeGroup" fill="#FFFFFF" d="M78.01,27L78,0.009L86.125,0L89,2.913v8.741l-1.75,1.781l1.75,1.76
		v8.956L86.199,27H78.01L78.01,27L78.01,27L78.01,27z M83.764,23c0.788,0,1.206-0.485,1.236-1.445v-5.154
		C85,15.459,84.546,15,83.618,15H82v8C82,23,83.687,23,83.764,23z M82,11.989h1.523c0.551,0,0.906-0.138,1.135-0.409
		c0.256-0.301,0.369-0.778,0.336-1.42V5.436c0.012-0.452-0.087-0.802-0.292-1.042c-0.226-0.262-0.59-0.392-1.081-0.392H82V12V11.989
		z"/>
	<path id="Fill-7" sketch:type="MSShapeGroup" fill="#FFFFFF" d="M96.763,27L94,24.048V2.881l2.721-2.879h5.339L105,2.881v21.167
		L101.96,27H96.763L96.763,27L96.763,27L96.763,27z M99.48,4c-1.331,0.11-1.979,0.71-1.979,1.834v16.298
		c-0.017,0.575,0.133,1.024,0.45,1.339c0.328,0.333,0.845,0.511,1.528,0.529c1.373-0.07,2.053-0.699,2.018-1.868V5.834
		C101.499,4.622,100.703,4.11,99.48,4L99.48,4z"/>
	<path id="Fill-8" sketch:type="MSShapeGroup" fill="#FFFFFF" d="M108,0h3.861l2.38,6.999L116.237,0h3.658l-3.725,12.788L120,27
		h-3.763l-2.101-7.745L111.896,27h-3.76l4.242-14.173L108,0"/>
</g>
</svg>
